Papirus/64x64/apps/pulseeffects.svg

<svg width="64" height="64" version="1" xmlns="http://www.w3.org/2000/svg">
 <rect transform="matrix(0,-1,-1,0,0,0)" x="-61" y="-60" width="56" height="56" rx="3" ry="3" style="opacity:.2"/>
 <rect transform="matrix(0,-1,-1,0,0,0)" x="-60" y="-60" width="56" height="56" rx="3" ry="3" style="fill:#4f4f4f"/>
 <path d="m7 4c-1.662 0-3 1.338-3 3v1c0-1.662 1.338-3 3-3h50c1.662 0 3 1.338 3 3v-1c0-1.662-1.338-3-3-3h-50z" style="fill:#ffffff;opacity:.1"/>
 <path d="m15 16c-1.662 0-3 1.338-3 3v30c0 1.662 1.338 3 3 3s3-1.338 3-3v-30c0-1.662-1.338-3-3-3z" style="opacity:.3"/>
 <path d="m15 28c-1.662 0-3 1.338-3 3v18c0 1.662 1.338 3 3 3s3-1.338 3-3v-18c0-1.662-1.338-3-3-3z" style="fill:#00ab43"/>
 <path d="m21 27a6 6 0 0 1-6 6 6 6 0 0 1-6-6 6 6 0 0 1 6-6 6 6 0 0 1 6 6z" style="opacity:.2"/>
 <path d="m21 26a6 6 0 0 1-6 6 6 6 0 0 1-6-6 6 6 0 0 1 6-6 6 6 0 0 1 6 6z" style="fill:#828282"/>
 <path d="m47 16c-1.662 0-3 1.338-3 3v30c0 1.662 1.338 3 3 3s3-1.338 3-3v-30c0-1.662-1.338-3-3-3z" style="opacity:.3"/>
 <path d="m47 34.196c-1.662 0-3 1.338-3 3v11.804c0 1.662 1.338 3 3 3s3-1.338 3-3v-11.804c0-1.662-1.338-3-3-3z" style="fill:#00ab43"/>
 <path d="m53 33a6 6 0 0 1-6 6 6 6 0 0 1-6-6 6 6 0 0 1 6-6 6 6 0 0 1 6 6z" style="opacity:.2"/>
 <path d="m53 32a6 6 0 0 1-6 6 6 6 0 0 1-6-6 6 6 0 0 1 6-6 6 6 0 0 1 6 6z" style="fill:#828282"/>
 <path d="m31 16c-1.662 0-3 1.338-3 3v30c0 1.662 1.338 3 3 3s3-1.338 3-3v-30c0-1.662-1.338-3-3-3z" style="opacity:.3"/>
 <path d="m31 42c-1.662 0-3 1.338-3 3v4c0 1.662 1.338 3 3 3s3-1.338 3-3v-4c0-1.662-1.338-3-3-3z" style="fill:#00ab43"/>
 <path d="m37 41a6 6 0 0 1-6 6 6 6 0 0 1-6-6 6 6 0 0 1 6-6 6 6 0 0 1 6 6z" style="opacity:.2"/>
 <path d="m37 40a6 6 0 0 1-6 6 6 6 0 0 1-6-6 6 6 0 0 1 6-6 6 6 0 0 1 6 6z" style="fill:#828282"/>
</svg>

<svg xmlns="http://www.w3.org/2000/svg" width="64" height="64" version="1">
 <rect width="56" height="56" x="-61" y="-60" rx="3" ry="3" transform="matrix(0,-1,-1,0,0,0)" style="opacity:0.2"/>
 <rect style="fill:#5e5e5e" width="56" height="56" x="-60" y="-60" rx="3" ry="3" transform="matrix(0,-1,-1,0,0,0)"/>
 <path style="opacity:0.1;fill:#ffffff" d="M 7 4 C 5.338 4 4 5.338 4 7 L 4 8 C 4 6.338 5.338 5 7 5 L 57 5 C 58.662 5 60 6.338 60 8 L 60 7 C 60 5.338 58.662 4 57 4 L 7 4 z"/>
 <path style="opacity:0.3" d="m 15,16 c -1.662,0 -3,1.338 -3,3 l 0,30 c 0,1.662 1.338,3 3,3 1.662,0 3,-1.338 3,-3 l 0,-30 c 0,-1.662 -1.338,-3 -3,-3 z"/>
 <path d="M 15,28 C 13.338,28 12,29.338 12,31 V 49 C 12,50.662 13.338,52 15,52 16.662,52 18,50.662 18,49 V 31 C 18,29.338 16.662,28 15,28 Z" style="fill:#dca200"/>
 <path style="opacity:0.2" d="m 21,27 a 6,6 0 0 1 -6,6 6,6 0 0 1 -6,-6 6,6 0 0 1 6,-6 6,6 0 0 1 6,6 z"/>
 <path style="fill:#fec006" d="m 21,26 a 6,6 0 0 1 -6,6 6,6 0 0 1 -6,-6 6,6 0 0 1 6,-6 6,6 0 0 1 6,6 z"/>
 <path style="opacity:0.3" d="m 47,16 c -1.662,0 -3,1.338 -3,3 l 0,30 c 0,1.662 1.338,3 3,3 1.662,0 3,-1.338 3,-3 l 0,-30 c 0,-1.662 -1.338,-3 -3,-3 z"/>
 <path d="M 47,34.196 C 45.338,34.196 44,35.534 44,37.196 V 49 C 44,50.662 45.338,52 47,52 48.662,52 50,50.662 50,49 V 37.196 C 50,35.534 48.662,34.196 47,34.196 Z" style="fill:#dca200"/>
 <path style="opacity:0.2" d="m 53,33 a 6,6 0 0 1 -6,6 6,6 0 0 1 -6,-6 6,6 0 0 1 6,-6 6,6 0 0 1 6,6 z"/>
 <path style="fill:#fec006" d="m 53,32 a 6,6 0 0 1 -6,6 6,6 0 0 1 -6,-6 6,6 0 0 1 6,-6 6,6 0 0 1 6,6 z"/>
 <path style="opacity:0.3" d="m 31,16 c -1.662,0 -3,1.338 -3,3 l 0,30 c 0,1.662 1.338,3 3,3 1.662,0 3,-1.338 3,-3 l 0,-30 c 0,-1.662 -1.338,-3 -3,-3 z"/>
 <path d="M 31,42 C 29.338,42 28,43.338 28,45 V 49 C 28,50.662 29.338,52 31,52 32.662,52 34,50.662 34,49 V 45 C 34,43.338 32.662,42 31,42 Z" style="fill:#dca200"/>
 <path style="opacity:0.2" d="m 37,41 a 6,6 0 0 1 -6,6 6,6 0 0 1 -6,-6 6,6 0 0 1 6,-6 6,6 0 0 1 6,6 z"/>
 <path style="fill:#fec006" d="m 37,40 a 6,6 0 0 1 -6,6 6,6 0 0 1 -6,-6 6,6 0 0 1 6,-6 6,6 0 0 1 6,6 z"/>
</svg>
